public/library/maple-finance-text-dark.svg

<svg width="133" height="42" viewBox="0 0 133 42" fill="none" xmlns="http://www.w3.org/2000/svg">
<path d="M1.23421 18.8309C7.09332 18.6597 21.0682 18.0166 24.187 13.4654C26.5581 10.007 21.3249 6.40559 18.8377 5.1042C16.3506 3.79905 12.8905 3.21606 12.8905 3.21606C19.8537 4.00403 30.8615 7.82922 27.4352 14.7837C24.3669 21.0086 8.36972 21.8549 1.23047 21.8549V18.8289H1.23421V18.8309Z" fill="#FFFFFF"/>
<path d="M1.23047 34.453V31.4759C10.0922 31.1788 21.9341 30.9212 28.0763 25.0292C28.243 30.2198 21.1582 32.5611 15.7357 33.5371C11.0425 34.3815 6.04557 34.5884 1.23234 34.453H1.23047Z" fill="#FFFFFF"/>
<path d="M28.0799 18.5848C23.2162 23.625 13.4565 25.0241 1.13672 25.0241V28.0425C14.092 28.0425 28.0425 26.1356 28.0799 18.5848Z" fill="#FFFFFF"/>
<path d="M113.844 24.4718C113.844 18.8562 117.322 14.2638 123.108 14.2638C129.727 14.2638 132.184 19.1966 131.882 24.1295H117.814C117.889 28.9101 120.574 31.6802 124.167 31.6802C126.966 31.6802 128.932 30.125 129.879 27.3547L132.034 27.9622C131.127 32.0225 127.987 34.7174 123.45 34.7174C117.549 34.7174 113.844 30.1268 113.844 24.4718ZM117.928 22.2319H127.835C127.646 19.0067 125.982 16.2741 123.108 16.2741C120.235 16.2741 118.382 18.8544 117.928 22.2319Z" fill="#FFFFFF"/>
<path d="M111.759 32.2531L113.082 34.0359V34.3386H106.539V34.0359L107.862 32.2531V10.1633L106.539 8.22815V7.92537L111.757 6.97754V32.2531H111.759Z" fill="#FFFFFF"/>
<path d="M85.5926 41.4361V41.1334L86.916 39.1606V16.8094L85.5926 15.1244L85.5664 14.4585H90.7732V18.2537C91.8323 15.8258 94.2913 14.2687 97.0503 14.2687C102.156 14.2687 105.786 18.4417 105.786 24.5143C105.786 30.5868 101.777 34.7223 96.2557 34.7223C94.1002 34.7223 92.0946 33.8497 90.7714 32.2173V39.1606L92.5857 41.1334V41.4361H85.5889H85.5926ZM95.879 32.5558C99.3951 32.5558 101.74 29.103 101.74 24.5124C101.74 19.9218 99.5095 17.037 96.1432 17.037C88.8914 17.037 88.2205 32.5558 95.879 32.5558Z" fill="#FFFFFF"/>
<path d="M73.3572 34.7174C68.2516 34.7174 64.6211 30.5048 64.6211 24.4718C64.6211 18.4387 68.6302 14.2638 74.1519 14.2638C76.611 14.2638 78.8414 15.2887 80.0523 16.6916L81.5648 14.4537H83.4934V32.2124L84.8168 34.0328V34.3374H79.6362V30.7324C78.5771 33.1227 76.1181 34.7174 73.3591 34.7174H73.3572ZM74.3019 31.9473C81.9209 31.9473 81.8572 16.4284 74.5286 16.4284C71.0125 16.4284 68.6676 19.8812 68.6676 24.4736C68.6676 29.0661 70.8981 31.9491 74.3019 31.9491V31.9473Z" fill="#FFFFFF"/>
<path d="M32.8193 34.3372V34.0344L34.4462 32.1369L34.4518 9.2949L32.75 7.28452V6.98174H38.9839L46.7361 24.5881C48.0218 27.4335 48.6647 29.8238 48.6647 29.8238C48.6647 29.8238 49.3076 27.4335 50.5184 24.5486L57.9688 6.97986H64.2459V7.28264L62.544 9.29302V32.0222L64.2459 34.0326V34.3353H56.683V34.0326L58.3849 32.0222V17.7934C58.3849 14.6809 58.5742 12.1779 58.5742 12.1779C58.5742 12.1779 57.7045 14.5306 56.4563 17.4135L49.0826 34.3372H46.6629L39.2126 17.4888C37.9268 14.6434 37.0945 12.2907 37.0945 12.2907C37.0945 12.2907 37.2839 14.7957 37.2839 17.9063L37.3588 32.135L38.9857 34.0326V34.3353H32.8212L32.8193 34.3372Z" fill="#FFFFFF"/>
</svg>

<svg xmlns="http://www.w3.org/2000/svg" width="133" height="42" fill="none" viewBox="0 0 133 42"><path fill="#fff" d="M1.234 18.83c5.86-.17 19.834-.813 22.953-5.365 2.371-3.458-2.862-7.06-5.35-8.36-2.486-1.306-5.946-1.889-5.946-1.889 6.963.788 17.97 4.613 14.544 11.568-3.068 6.225-19.065 7.07-26.205 7.07V18.83h.004zM1.23 34.453v-2.977c8.862-.297 20.704-.555 26.846-6.447.167 5.19-6.918 7.532-12.34 8.508-4.693.845-9.69 1.051-14.504.916z"/><path fill="#fff" d="M28.08 18.585c-4.864 5.04-14.623 6.44-26.943 6.44v3.018c12.955 0 26.906-1.907 26.943-9.458M113.844 24.472c0-5.616 3.478-10.208 9.264-10.208 6.619 0 9.076 4.933 8.774 9.866h-14.068c.075 4.78 2.76 7.55 6.353 7.55 2.799 0 4.765-1.555 5.712-4.325l2.155.607c-.907 4.06-4.047 6.755-8.584 6.755-5.901 0-9.606-4.59-9.606-10.245m4.084-2.24h9.907c-.189-3.225-1.853-5.958-4.727-5.958-2.873 0-4.726 2.58-5.18 5.958M111.759 32.253l1.323 1.783v.303h-6.543v-.303l1.323-1.783v-22.09l-1.323-1.935v-.303l5.218-.947v25.275zM85.593 41.436v-.303l1.323-1.972V16.809l-1.323-1.685-.027-.665h5.207v3.795c1.06-2.428 3.518-3.985 6.277-3.985 5.106 0 8.736 4.173 8.736 10.245 0 6.073-4.009 10.208-9.53 10.208-2.156 0-4.161-.872-5.485-2.505v6.944l1.815 1.972v.303h-6.997zm10.286-8.88c3.516 0 5.861-3.453 5.861-8.044 0-4.59-2.23-7.475-5.597-7.475-7.252 0-7.922 15.519-.264 15.519M73.357 34.717c-5.105 0-8.736-4.212-8.736-10.245s4.01-10.208 9.53-10.208c2.46 0 4.69 1.025 5.901 2.428l1.513-2.238h1.928v17.758l1.324 1.82v.305h-5.18v-3.605c-1.06 2.39-3.519 3.985-6.278 3.985zm.945-2.77c7.619 0 7.555-15.519.227-15.519-3.516 0-5.861 3.453-5.861 8.046 0 4.592 2.23 7.475 5.634 7.475zM32.82 34.337v-.303l1.626-1.897.006-22.842-1.702-2.01v-.303h6.234l7.752 17.606c1.286 2.845 1.929 5.236 1.929 5.236s.643-2.39 1.853-5.275l7.45-17.57h6.278v.304l-1.702 2.01v22.73l1.702 2.01v.302h-7.563v-.302l1.702-2.01v-14.23c0-3.112.19-5.615.19-5.615s-.87 2.353-2.119 5.235l-7.373 16.924h-2.42l-7.45-16.848c-1.286-2.846-2.119-5.198-2.119-5.198s.19 2.505.19 5.615l.075 14.229 1.627 1.898v.302H32.82z"/></svg>
